Resources/Public/Icons/module-dbal.svg

<svg xmlns="http://www.w3.org/2000/svg" viewBox="0 0 64 64"><path fill="#415697" d="M0 0h64v64H0z"/><path fill-rule="evenodd" clip-rule="evenodd" fill="#FFF" d="M39.4 39.5v-3.3c3.2-.2 6.2-.9 8-2.1v2.2c0 1.6-3.4 2.9-8 3.2zm0-4.9v-3.3c3.2-.2 6.2-.9 8-2.1v2.2c0 1.5-3.4 2.9-8 3.2zm0-5v-3.3l.1.1v-.1c3.2-.2 6.2-.9 7.9-2.1v2.2c0 1.5-3.4 2.9-8 3.2zm-.9-4.9c-2.1-2.3-6.6-3.3-11-3.4v-1.6c0-1.8 4.4-3.3 9.9-3.3s9.9 1.5 9.9 3.3v1.7c.1 1.7-3.8 3.1-8.8 3.3zm-2.1 3v1.7c0 1.8-4.4 3.3-9.9 3.3s-9.9-1.5-9.9-3.3v-1.7c0-1.8 4.4-3.3 9.9-3.3s9.9 1.5 9.9 3.3zm0 4.4v2.2c0 1.8-4.4 3.3-9.9 3.3s-9.9-1.5-9.9-3.3v-2.2c2.1 1.5 6 2.2 9.9 2.2s7.8-.7 9.9-2.2zm0 5v2.2c0 1.8-4.4 3.3-9.9 3.3s-9.9-1.5-9.9-3.3v-2.2c2.1 1.5 6 2.2 9.9 2.2s7.8-.7 9.9-2.2zm0 5v2.2c0 1.8-4.4 3.3-9.9 3.3s-9.9-1.5-9.9-3.3v-2.2c2.1 1.5 6 2.2 9.9 2.2s7.8-.7 9.9-2.2z"/></svg>

<?xml version="1.0" encoding="utf-8"?>
<!-- Generator: Adobe Illustrator 19.0.1, SVG Export Plug-In . SVG Version: 6.00 Build 0)  -->
<svg version="1.1" xmlns="http://www.w3.org/2000/svg" xmlns:xlink="http://www.w3.org/1999/xlink" x="0px" y="0px"
	 viewBox="0 0 64 64" enable-background="new 0 0 64 64" xml:space="preserve">
<g id="Background">
	<rect fill="#415697" width="64" height="64"/>
</g>
<g id="Icon">
	<path fill-rule="evenodd" clip-rule="evenodd" fill="#FFFFFF" d="M39.4,39.5v-3.3c3.2-0.2,6.2-0.9,8-2.1v2.2
		C47.4,37.9,44,39.2,39.4,39.5z M39.4,34.6v-3.3c3.2-0.2,6.2-0.9,8-2.1v2.2C47.4,32.9,44,34.3,39.4,34.6z M39.4,29.6v-3.3
		c0,0,0,0,0,0l0.1,0.1c0,0,0-0.1,0-0.1c3.2-0.2,6.2-0.9,7.9-2.1v2.2C47.4,27.9,44,29.3,39.4,29.6z M38.5,24.7
		c-2.1-2.3-6.6-3.3-11-3.4v-1.6c0-1.8,4.4-3.3,9.9-3.3s9.9,1.5,9.9,3.3v1.7C47.4,23.1,43.5,24.5,38.5,24.7z M36.4,27.7v1.7
		c0,1.8-4.4,3.3-9.9,3.3s-9.9-1.5-9.9-3.3v-1.7c0-1.8,4.4-3.3,9.9-3.3S36.4,25.9,36.4,27.7z M36.4,32.1v2.2c0,1.8-4.4,3.3-9.9,3.3
		s-9.9-1.5-9.9-3.3v-2.2c2.1,1.5,6,2.2,9.9,2.2S34.3,33.6,36.4,32.1z M36.4,37.1v2.2c0,1.8-4.4,3.3-9.9,3.3s-9.9-1.5-9.9-3.3v-2.2
		c2.1,1.5,6,2.2,9.9,2.2S34.3,38.6,36.4,37.1z M36.4,42.1v2.2c0,1.8-4.4,3.3-9.9,3.3s-9.9-1.5-9.9-3.3v-2.2c2.1,1.5,6,2.2,9.9,2.2
		S34.3,43.6,36.4,42.1z"/>
</g>
</svg>
